X:532
T:If Ever You Were Mine
M:3/4
L:1/8
C:Maurice Lennon
K:G
DE|"G"G4 e2|"D"d4 ((3BAG)|"C"AB G4|"G"G4 DE|G4 e2|"D"d4 Bd|d6-|d2 e2 f2|
"Em"g4 ed|"C"g4 ed|"G"e2 d3 B|"Em"AB G2 ((3GFE)|"G"D4 ed|"D"d4 ((3BAG)|"C"DE G2 GA|"G"G6|
"G"B3 d ((3BAG)|"D"d4 ((3Bcd)|"C"c2 d2 e2|"D"d4 ((3Bcd)|"Em"B3 d ((3BAG)|"D"d4 ((3Bcd)|"C"c2 d2 e2|"D"de fd ef|
"Em"g2 g2 ed|"C"g2 g2 ed|"G"e2 d3 B|"Em"AB G2 ((3GFE)|"G"D4 ed|"D"d4 ((3BAG)|"C"DE G2 GA|"G"G6||

